X:15145
T:Seamus a' Chaca
T:James The Shit
T:James The Coward
R:Jig
S:
H:
N:In Buntings third collection - 
D:Milltown 1999 
Z:Adrian Scahill
M:6/8
L:1/8
K:D
d3 d2e|dcB ABc|dcB AGF|GAF E2D|\
e3 efg|fed eag|f3 d2c|def e2d:||\
fed eAA|fed eAA|gfe fBB|gfe fBB|\
fed eAA|fed eag|f3 dBA|Bdf e2d:||\
dfa dfa|dfa agf|egb egb|egb bge|\
dfa dfa|dfa a2g|f3 dBA|def e2d:||\
